X:41
T:Round the May-Pole
M:6/8
L:1/8
B:Thompson's Compleat Collection of 200 Favourite Country Dances, vol. 3 (London, 1773)
Z:Transcribed and edited by Flynn Titford-Mock, 2007
Z:abc's:AK/Fiddler's Companion
K:Bb
B>cB d2f | B>cB d2f | bag fed | cdB AGF | G>cB d2f | B>cB d2b | agf cf=e | f3 F3 :|
|: f2f f2g | _agf edc | e2e e2f | gfe dcB | BFB dBd | fdf bfe | dcB F>BA | B3 B,3 :|

